X: 2
T: The Wandering Minstrel
R: jig
M: 6/8
L: 1/8
K: Dmaj
ADD BAF|Ade fdB|ADD BAG|~F3 GFE|ADD BAF|Ade fdB|AdB AFE|1 FDC D2 B:|2 F/E/DC D2 e||faf ede|fdB AFA|~B3 AGF|GFG E2e|~f3 ede|fdB AFA|B/c/dB AFE|FDC D2 e:||f2 f afd|gbe gbe|~f3 afd|ceA ceA|~f3 afd|gbe gbe|f/g/af efg|fdc d3 |~f3 afd|~g3 gfe|~f3 afd|c2 c cBA|f/a/fA afd|gbe gbe|f/g/af efg|fdc dcB||


Tune 2025	Setting 15435

